libs/ui/packages/crypto-icons/src/svg/DENT.svg

<svg width="24" height="24" viewBox="0 0 24 24" fill="none">
<path fill-rule="evenodd" clip-rule="evenodd" d="M18.8114 15.8625C18.6571 16.1201 18.4081 16.307 18.1177 16.3834C17.8273 16.4598 17.5185 16.4195 17.2574 16.2712L13.6732 14.2388V12.9487L14.8117 12.3038L18.3952 14.3355C18.9397 14.6438 19.1257 15.3278 18.8114 15.8617V15.8625ZM13.1377 18.6068C13.1377 19.224 12.6284 19.7242 11.9999 19.7242C11.3714 19.7242 10.8622 19.224 10.8622 18.6068V14.5425L11.9999 13.8975L13.1377 14.5425V18.6068ZM6.74241 16.2712C6.48121 16.4195 6.17239 16.4596 5.88198 16.3831C5.59157 16.3066 5.34264 16.1194 5.18841 15.8617C5.11395 15.7346 5.06564 15.5939 5.04628 15.4478C5.02693 15.3017 5.03693 15.1533 5.0757 15.0111C5.11447 14.869 5.18122 14.736 5.27205 14.62C5.36288 14.504 5.47596 14.4072 5.60466 14.3355L9.18816 12.303L10.3267 12.9487V14.2388L6.74241 16.2712ZM5.60466 9.6645C5.47596 9.59275 5.36288 9.49604 5.27205 9.38002C5.18122 9.26401 5.11447 9.13103 5.0757 8.98887C5.03693 8.84672 5.02693 8.69826 5.04628 8.5522C5.06564 8.40613 5.11395 8.2654 5.18841 8.13825C5.34264 7.88056 5.59157 7.69344 5.88198 7.61692C6.17239 7.54039 6.48121 7.58053 6.74241 7.72875L10.3267 9.76125V11.0512L9.18816 11.6962L5.60466 9.6645ZM10.8622 5.39325C10.8622 4.776 11.3722 4.27575 11.9999 4.27575C12.6284 4.27575 13.1377 4.776 13.1377 5.39325V9.45675L11.9999 10.1025L10.8622 9.4575V5.39325ZM13.6732 11.6588L14.2762 12L13.6732 12.3412V11.6588ZM12.5354 10.4062L13.1377 10.0642V10.7475L12.5354 10.4062ZM10.8622 10.7475V10.065L11.4644 10.4062L10.8622 10.7475ZM10.3267 12.3412L9.72366 12L10.3267 11.6588V12.3412ZM11.4644 13.5938L10.8622 13.9357V13.2525L11.4644 13.5938ZM13.1377 13.2525V13.935L12.5354 13.5938L13.1377 13.2525ZM11.9999 13.29L10.8622 12.645V11.355L11.9999 10.71L13.1377 11.355V12.645L11.9999 13.29ZM17.2574 7.72875C17.5186 7.58053 17.8274 7.54039 18.1178 7.61692C18.4082 7.69344 18.6572 7.88056 18.8114 8.13825C19.1264 8.67225 18.9389 9.35625 18.3952 9.6645L14.8117 11.697L13.6732 11.0512V9.76125L17.2574 7.72875ZM18.6629 13.8802L15.3472 12L18.6629 10.1198C18.8523 10.0143 19.0187 9.87216 19.1524 9.70155C19.2861 9.53095 19.3844 9.33536 19.4415 9.12626C19.4985 8.91717 19.5133 8.69877 19.4848 8.4839C19.4563 8.26903 19.3852 8.06202 19.2757 7.875C18.8137 7.089 17.7899 6.81975 16.9897 7.2735L13.6732 9.15375V5.3925C13.6732 4.48575 12.9239 3.75 11.9999 3.75C11.0759 3.75 10.3267 4.48575 10.3267 5.39325V9.15375L7.01016 7.2735C6.20991 6.81975 5.18616 7.089 4.7249 7.875C4.61534 8.06202 4.54424 8.26903 4.51577 8.4839C4.4873 8.69877 4.50203 8.91717 4.55911 9.12626C4.61619 9.33536 4.71445 9.53095 4.84815 9.70155C4.98184 9.87216 5.14827 10.0143 5.33766 10.1198L8.65266 12L5.33766 13.8802C5.1482 13.9856 4.98171 14.1277 4.84794 14.2983C4.71417 14.4689 4.61582 14.6645 4.55868 14.8736C4.50153 15.0827 4.48673 15.3011 4.51514 15.516C4.54356 15.7309 4.61462 15.9379 4.72415 16.125C5.18615 16.911 6.20991 17.1803 7.01016 16.7265L10.3267 14.8463V18.6068C10.3267 19.5142 11.0759 20.25 11.9999 20.25C12.9239 20.25 13.6732 19.5142 13.6732 18.6068V14.8463L16.9897 16.7265C17.7899 17.1803 18.8137 16.911 19.2757 16.125C19.3852 15.938 19.4563 15.731 19.4848 15.5161C19.5133 15.3012 19.4985 15.0828 19.4415 14.8737C19.3844 14.6646 19.2861 14.469 19.1524 14.2984C19.0187 14.1278 18.8523 13.9857 18.6629 13.8802Z" fill="#666666"/>
</svg>

<svg width="24" height="24" viewBox="0 0 24 24" fill="none"><path fill="#666" fill-rule="evenodd" d="M18.811 15.863a1.15 1.15 0 0 1-1.554.408l-3.584-2.032v-1.29l1.139-.645 3.583 2.031c.545.309.73.993.416 1.527m-5.673 2.744c0 .617-.51 1.117-1.138 1.117-.629 0-1.138-.5-1.138-1.117v-4.064L12 13.898l1.138.645zM6.742 16.27a1.15 1.15 0 0 1-1.554-.41 1.106 1.106 0 0 1 .417-1.526l3.583-2.032 1.139.646v1.29zM5.605 9.664a1.107 1.107 0 0 1-.417-1.526 1.15 1.15 0 0 1 1.554-.41l3.585 2.033v1.29l-1.139.645zm5.257-4.27c0-.618.51-1.118 1.138-1.118s1.138.5 1.138 1.117v4.064L12 10.102l-1.138-.645zm2.811 6.265.603.341-.603.341zm-1.138-1.253.603-.342v.684zm-1.673.341v-.682l.602.341zm-.535 1.594L9.724 12l.603-.341zm1.137 1.253-.602.342v-.684zm1.674-.341v.682l-.603-.341zM12 13.29l-1.138-.645v-1.29L12 10.71l1.138.645v1.29zm5.257-5.561a1.15 1.15 0 0 1 1.554.41 1.106 1.106 0 0 1-.416 1.526l-3.583 2.032-1.139-.646v-1.29zm1.406 6.151L15.347 12l3.316-1.88a1.63 1.63 0 0 0 .613-2.245 1.69 1.69 0 0 0-2.286-.601l-3.317 1.88V5.393c0-.907-.75-1.643-1.673-1.643-.924 0-1.673.736-1.673 1.643v3.76L7.01 7.274a1.69 1.69 0 0 0-2.285.602 1.63 1.63 0 0 0 .613 2.245L8.653 12l-3.315 1.88a1.63 1.63 0 0 0-.614 2.245 1.69 1.69 0 0 0 2.286.602l3.317-1.88v3.76c0 .907.749 1.643 1.673 1.643s1.673-.736 1.673-1.643v-3.76l3.317 1.88a1.69 1.69 0 0 0 2.286-.602 1.63 1.63 0 0 0-.613-2.245" clip-rule="evenodd"/></svg>
